X:248
T: St. Michael
N: A0609
O: Europa, Mitteleuropa, Deutschland
N: Wuerzburger Gsgb 1649 und bei Ditfurth, Fraenk. Vl I.2, No. 55.
R: Romanze, Ballade, Lied, religioeses Lied
M: 3/4
L: 1/4
K: E
E | E2F | =G2G | A2A | B2=G | A2A | B2
B | B2=c | =d2B | B2A | =G2
B | A2=G | FEB | A2=G | FE=G | A2F | E2

